X: 224
T: Miss Boswell of Auchinleck's Favorite
C: William Shepherd (17??-1812)
R: jig
Q: "Slow"
B: William Shepherd "2nd Collection" 1800 p.22 #4
F: http://imslp.org/wiki/File:PMLP73094-Shepherd_Collections_HMT.pdf
Z: 2012 John Chambers <jc:trillian.mit.edu>
M: 6/8
L: 1/8
K: Eb
G,/B,/ |\
E2E TE>GB | e>BG E2B, | C>DE FAF | (TE3 D2)B, |\
C>DE FGA | B>GE TE3B, | C>cB A>GF | (TE3 D2) ||
B, |\
E2E TEGB | eBG E2B, | CDE FAF | (TE3 D2)B,/A,/ |\
G,B,E A,CF | B,DF EGA | BGE AFD | (TF3 E2) |]
B |\
.e>.e.e .e>.d.c | {d}c=Bc G2c | c>de E>GB | B2A G2B |\
ccA BBG | AAF GEB, | CcB AGF | E3 D2 ||
B |\
.e>.e.e .e>.d.c | {d}c=Bc G2c | c>de (c/B/).A/.G/.F/.E/ | [B2F2]A G2B |\
AcA FGA | GBG EFG | CcA GAF | (TF3 E2) |]
